svg/icon/fort.svg

<?xml version="1.0" encoding="UTF-8"?>
<svg xmlns="http://www.w3.org/2000/svg" xmlns:xlink="http://www.w3.org/1999/xlink" width="32px" height="32px" viewBox="0 0 32 32" version="1.1">
<g id="surface1">
<path style=" stroke:none;fill-rule:nonzero;fill:rgb(0%,0%,0%);fill-opacity:1;" d="M 22.878906 18.59375 C 25.738281 17.023438 28.8125 15.875 32 15.183594 L 29.640625 7.917969 C 28.628906 8.359375 27.585938 8.753906 26.515625 9.105469 C 24.472656 9.769531 22.375 10.238281 20.242188 10.511719 C 19.636719 7.308594 19.492188 4.03125 19.820312 0.785156 L 12.179688 0.785156 C 12.289062 1.882812 12.339844 2.996094 12.34375 4.121094 C 12.34375 6.269531 12.144531 8.414062 11.746094 10.523438 C 8.507812 10.109375 5.347656 9.230469 2.359375 7.917969 L 0 15.183594 C 1.078125 15.421875 2.152344 15.710938 3.226562 16.058594 C 5.265625 16.722656 7.242188 17.574219 9.125 18.605469 C 7.734375 21.558594 5.921875 24.292969 3.75 26.726562 L 9.929688 31.214844 C 10.488281 30.265625 11.097656 29.332031 11.761719 28.421875 C 13.023438 26.683594 14.445312 25.066406 16.007812 23.59375 C 18.382812 25.832031 20.425781 28.398438 22.066406 31.21875 L 28.25 26.726562 C 27.515625 25.902344 26.816406 25.03125 26.15625 24.121094 C 24.890625 22.386719 23.792969 20.535156 22.878906 18.59375 Z M 22.878906 18.59375 "/>
</g>
</svg>

<svg xmlns="http://www.w3.org/2000/svg" width="32" height="32" viewBox="0 0 32 32"><path d="M22.879 18.594A33.9 33.9 0 0 1 32 15.184l-2.36-7.266a34.5 34.5 0 0 1-9.398 2.594A34 34 0 0 1 19.82.785h-7.64a34.5 34.5 0 0 1-.434 9.738A34 34 0 0 1 2.36 7.918L0 15.184a35 35 0 0 1 3.227.875 34.6 34.6 0 0 1 5.898 2.546 33.9 33.9 0 0 1-5.375 8.122l6.18 4.488a34 34 0 0 1 1.832-2.793 34.4 34.4 0 0 1 4.246-4.828 34 34 0 0 1 6.058 7.625l6.184-4.492a33 33 0 0 1-2.094-2.606 34 34 0 0 1-3.277-5.527m0 0" style="stroke:none;fill-rule:nonzero;fill:#000;fill-opacity:1"/></svg>
